X:644
T:The Sailor
T:The Davy Hornpipe
%%subtitlefont Times-Roman 28
Z:1997 by John Chambers <jc@trillian.mit.edu>
Q:1/2=120
M:4/4
L:1/8
K:G
|: dc | "G"BGBd gdcB | "Am"A2a2 a2ag | "D7"fgfd cdcA | "G"GFGA B2dc |\
"G"BGBd gdcB | "Am"A2a2 agec | "G"BdBG "D7"AcAF | "G"G2G2 G2 :|
|: Bc | "G"dcBA GBdg | "C"e2c2 c2cd | "A7"ed^cB Aaag | "D7"f2d2 d2ef |\
"Em"gaag "D"fgaf | "C"efge "D7"dcBA | "G"BdBG "D7"AcAF | "G"G2G2 G2 :|
N:Replace by blank line and X field
T:Gilderoy
Z:Nottingham Music Database
Q:1/2=120
M:4/4
L:1/8
K:Am
|: E2 | "Am"A2AB cBcd | "Am"efec "Dm"d2cd | "Am"edcB ABcA | "E7"B^GE2 E2(3E^FG |\
"Am"A^GAB cBcd | "Am"efec "G"d2cd | "Am"ea^ga "E7"edcB | "Am"c2A2 A2 :|
|: ef | "C"g2ga gfef | "C"gfec "G"d2cd | "Am"edcB ABcA | "E7"B^GE2 E2(3E^FG |\
"Am"A^GAB cBcd | "Am"efec "G"d2cd | "Am"ea^ga "E7"edcB | "Am"c2A2 A2 :|
N:Replace by blank line and X field
T:The Bow-Legged Bosun
C:J.M. Hunter
Z:1997 by John Chambers <jc@trillian.mit.edu>
Q:1/2=120
M:4/4
L:1/8
K:A
|: AB | "A"c2A2 "F#m"A2Bc | "Bm"d2B2 "E7"B2cd | "A"e2c2 "Bm"dcBA | "E7"G2E2 E2AB |\
"A"c2A2 A2Bc | "G"d2B2 B2cd | "A"eada "E7"caBa | "A"c2A2 A2 :|
|: BA | "E7"G2E2 edcB | "A"c2A2 A2 Bc | "D"d2~d2 "Bm"dfaf | "E7"e6 fg |\
"A"{g}a2ed cBAG | "D"F2{c}dc "Bm"BAGF | "A"E2A2 "E7"GABG | "A"A2A,2 A,2 :|
N:Replace by blank line and X field
T:The Lochmaben Hornpipe
Q:1/2=120
S:Colin Hume's website,  colinhume.com  - chords can also be printed below the stave.
M:4/4
L:1/8
K:D
|: FE | "D"D2 d2 d2 cd | "A"ecAc "D"d2 de | "D"fdfd "Em"gege | "D"afdf "A"e2 FE |\
"D"D2 d2 d2 cd | "A"ecAc "D"d2 cd | "A"efed "E7"cBA^G | "A"A2 A2 A2 :|
|: fg | "D"agfe dedc | "G".B2 .G2 .G2 ga | "Em"bagf "E7"efed | "A".c2 .A2 .A2 fg |\
"D"afaf "G"gbgb | "D"afaf "Em"gbgb | "D"af bg "A"fedc | "D"d2 d2 d2 :|

